X: 12
T: The Bonny Ship The Diamond
R: hornpipe
M: 4/4
L: 1/8
K: Dmaj
d|:e2 e2 B2 c2|d3 c B2 dd|e2 e2 B2 c2|d4 z2 dd|
e2 e2 B2 c2|d3 c B2 G2|A2 B2 AG F2|1 E4 z2 dd:|2 E4 E2 F2||
G4 F2 G2|E4 B2 d2|e4 f2 d2|e4 z2 ef|
g2 e2 f2 d2|e2 d2 B3 G|A2 B2 G2 F2| E8|
W:
W:The Diamond is a ship, me lads, for the Davis Strait we're bound
W:The quay it is all garnished with bonnie lasses 'round
W:Captain Thompson gives the orders to sail the ocean wide
W:Where the sun it never sets, me lads, nor darkness dims the sky
W:
W:For it's cheer up me lads, let your hearts never fail
W:For the bonny ship, the Diamond, goes a-fishing for the whale
W:For it's cheer up me lads, let your hearts never fail
W:For the bonny ship, the Diamond, goes a-fishing for the whale
W:
W:Along the quay of Peterhead, the lasses stand around
W:Wi' their shawls all pulled around
W:Their necks and the salt tears runnin' down
W:Well don't you weep, my bonny lass, though you'll be left behind
W:For the rose will bloom on Greenland's ice before we change our mind
W:
W:For it's cheer up me lads...
W:
W:Here's a health to the Resolution (Hey), likewise the Eliza Swan
W:Three cheers to the Battler of Montrose and the Diamond, ship of fame
W:We wear the trousers of the white and the jackets of the blue
W:When we get back to Peterhead, we'll have sweethearts anew
W:
W:For it's cheer up me lads...
W:
W:It will be bright both day and night when Greenland lads come hame
W:Our ship full up with oil, my lads, and money to our name
W:We'll make the cradles for to rock and the blankets for to tear
W:And every lass in Peterhead sing: "Hushabye, my dear"
W:
W:For it's cheer up me lads...
W:
